web/ui/src/assets/svgs/index/node-library-btn.svg

<svg height="56" viewBox="0 0 56 56" width="56" xmlns="http://www.w3.org/2000/svg"><g fill="none" fill-rule="evenodd"><circle cx="28" cy="28" fill="#e3edff" r="28"/><g fill-rule="nonzero"><path d="m8 8h39.243243v39.243243h-39.243243z" fill="#000" opacity="0"/><path d="m45.5073615 22.5514253-1.1765309 3.5449218-.8201224 2.4795292c-.0383235.1111381-.1801204.1417968-.2605997.0536528l-1.234016-1.3834776-2.9853991-3.3571368c-.076647-.088144-.0306588-.2299409.0843117-.252935l1.0807221-.2222762c.3947318-.0804793.605511-.5173669.4215583-.8776076-.6783256-1.3528189-1.563598-2.5791702-2.6443201-3.6598924-1.1267103-1.1267103-2.4182116-2.0464738-3.8400127-2.7324641-.0996411-.0498205-.3065878-.1417968-.517367-.2299408-.2912584-.1264675-.6285051-.0076647-.781799.2682643-.9350929 1.7015625-2.7477935 2.8550993-4.8287584 2.8550993-2.2802471 0-4.2347445-1.3796453-5.0778611-3.3533045-.2835937-.6668286-.44072-1.398807-.44072-2.1652766 0-.0958087.0038323-.1916174.0076647-.2874261.1494616-2.9125845 2.5600084-5.231155 5.5109164-5.231155 2.8282728 0 5.1583404 2.1269531 5.4802576 4.8670819.0268264.2261086.1801203.417726.3947318.4982053 4.1887564 1.5904244 7.5650549 4.8287584 9.3317673 8.9255384.1149705.2682643.4023966.4177259.6859903.3564084l1.4332982-.2950908c.1188028-.0229941.2146115.088144.176288.1992821zm1.5063652 13.7083087c-.0309113 3.0850401-2.6177461 5.5607369-5.7027863 5.4610958-.6706609-.0229941-1.3144953-.1647909-1.9046769-.4062289-.2146115-.088144-.4560494-.0459881-.6323374.1034734-2.8934227 2.4871939-6.6567884 3.9856419-10.7688978 3.9856419-.7588049 0-1.5022804-.0498205-2.2342589-.1494616-.2835937-.0383234-.5518581.1226352-.6553315.3870672l-.4982052 1.2915013c-.0421559.111138-.1877851.1341321-.2605997.0421558l-2.0962943-2.5944996-1.8931799-2.3415646c-.0728146-.0919764-.0191618-.2299409.0958087-.2491026l1.4332981-.2261086 4.8364232-.7626372c.1149704-.0191617.2107791.0958087.1686233.2069468l-.4138936 1.0768898c-.1494616.3870671.1188028.804793.5326964.8316195.3257495.0229941.6553315.0344911.9849134.0344911 1.9046769 0 3.7518686-.3717377 5.4879223-1.1075486 1.1497044-.4867081 2.2189295-1.1152132 3.1923458-1.8778505.2491027-.1954497.3065879-.5480257.1379646-.8162901-.5365287-.8507812-.8507813-1.8625211-.8507813-2.9432432 0-3.0467167 2.4718645-5.5185811 5.5185811-5.5185811.164791 0 .3295819.0076647.4905405.0229941.858446.0766469 1.6632391.3487437 2.3645587.7741343 1.6134185.9734164 2.686476 2.7516258 2.6675667 4.7751056zm-32.0041904-12.8996833c-.7358108 1.7360536-1.1075486 3.5832453-1.1075486 5.4879223 0 .4330553.0191618.8661106.0574853 1.2915012.0268264.3142526.2874261.5595228.6055109.5595228.2299409.0038324.4637141.0076647.5633552.0191618 2.7592905.3065878 4.9054054 2.6443201 4.9054054 5.4840899 0 1.2761719-.4330553 2.4527027-1.1612014 3.3877956-.5135347.6591639-1.1726985 1.199525-1.9276711 1.5712627-.6821579.3334143-1.4409628.5326964-2.2419235.5556905-3.0850401.099641-5.67187503-2.3760558-5.70253381-5.4610959-.02299409-1.8893475.91209881-3.5640836 2.34922931-4.5719911.187785-.1302999.2835937-.3564084.252935-.5863493-.0996411-.7358108-.153294-1.486951-.153294-2.2534206 0-3.8591744 1.3183277-7.4079286 3.5334249-10.2247044.176288-.2261085.1724556-.5441934-.0038324-.7664696l-.9542546-1.1765308c-.0728146-.0919763-.0229941-.2299409.0958087-.2491026l3.6215688-.5748522 2.6443201-.4215583c.1149705-.0191617.2107792.0958087.1686233.2069468l-.628505 1.6440773-1.640245 4.284565c-.0421558.1111381-.187785.1341322-.2605996.0421559l-.6514992-.8047931c-.2567673-.3180849-.7473078-.3027555-.9772487.0344911-.5518581.793296-1.0117399 1.6325802-1.38731 2.521685z" fill="#2f54eb"/></g></g></svg>

<?xml version="1.0" encoding="UTF-8"?>
<svg width="56px" height="56px" viewBox="0 0 56 56" version="1.1" xmlns="http://www.w3.org/2000/svg" xmlns:xlink="http://www.w3.org/1999/xlink">
    <title>流转,协作,循环,环形,协同,流程,节点</title>
    <g id="页面-1" stroke="none" stroke-width="1" fill="none" fill-rule="evenodd">
        <g id="建木CI-图形编辑器入口备份-3" transform="translate(-1411.000000, -104.000000)">
            <g id="编组-10" transform="translate(1404.000000, 104.000000)">
                <g id="流程" transform="translate(7.000000, 0.000000)">
                    <circle id="椭圆形备份-4" fill="#E3EDFF" cx="28" cy="28" r="28"></circle>
                    <rect id="矩形" fill="#000000" fill-rule="nonzero" opacity="0" x="8" y="8" width="39.2432432" height="39.2432432"></rect>
                    <path d="M45.5073615,22.5514253 L44.3308306,26.0963471 L43.5107082,28.5758763 C43.4723847,28.6870144 43.3305878,28.7176731 43.2501085,28.6295291 L42.0160925,27.2460515 L39.0306934,23.8889147 C38.9540464,23.8007707 39.0000346,23.6589738 39.1150051,23.6359797 L40.1957272,23.4137035 C40.590459,23.3332242 40.8012382,22.8963366 40.6172855,22.5360959 C39.9389599,21.183277 39.0536875,19.9569257 37.9729654,18.8762035 C36.8462551,17.7494932 35.5547538,16.8297297 34.1329527,16.1437394 C34.0333116,16.0939189 33.8263649,16.0019426 33.6155857,15.9137986 C33.3243273,15.7873311 32.9870806,15.9061339 32.8337867,16.1820629 C31.8986938,17.8836254 30.0859932,19.0371622 28.0050283,19.0371622 C25.7247812,19.0371622 23.7702838,17.6575169 22.9271672,15.6838577 C22.6435735,15.0170291 22.4864472,14.2850507 22.4864472,13.5185811 C22.4864472,13.4227724 22.4902795,13.3269637 22.4941119,13.231155 C22.6435735,10.3185705 25.0541203,8 28.0050283,8 C30.8333011,8 33.1633687,10.1269531 33.4852859,12.8670819 C33.5121123,13.0931905 33.6654062,13.2848079 33.8800177,13.3652872 C38.0687741,14.9557116 41.4450726,18.1940456 43.211785,22.2908256 C43.3267555,22.5590899 43.6141816,22.7085515 43.8977753,22.647234 L45.3310735,22.3521432 C45.4498763,22.3291491 45.545685,22.4402872 45.5073615,22.5514253 L45.5073615,22.5514253 Z M47.0137267,36.259734 C46.9828154,39.3447741 44.3959806,41.8204709 41.3109404,41.7208298 C40.6402795,41.6978357 39.9964451,41.5560389 39.4062635,41.3146009 C39.191652,41.2264569 38.9502141,41.2686128 38.7739261,41.4180743 C35.8805034,43.9052682 32.1171377,45.4037162 28.0050283,45.4037162 C27.2462234,45.4037162 26.5027479,45.3538957 25.7707694,45.2542546 C25.4871757,45.2159312 25.2189113,45.3768898 25.1154379,45.6413218 L24.6172327,46.9328231 C24.5750768,47.0439611 24.4294476,47.0669552 24.356633,46.9749789 L22.2603387,44.3804793 L20.3671588,42.0389147 C20.2943442,41.9469383 20.347997,41.8089738 20.4629675,41.7898121 L21.8962656,41.5637035 L26.7326888,40.8010663 C26.8476592,40.7819046 26.9434679,40.896875 26.9013121,41.0080131 L26.4874185,42.0849029 C26.3379569,42.47197 26.6062213,42.8896959 27.0201149,42.9165224 C27.3458644,42.9395165 27.6754464,42.9510135 28.0050283,42.9510135 C29.9097052,42.9510135 31.7568969,42.5792758 33.4929506,41.8434649 C34.642655,41.3567568 35.7118801,40.7282517 36.6852964,39.9656144 C36.9343991,39.7701647 36.9918843,39.4175887 36.823261,39.1493243 C36.2867323,38.2985431 35.9724797,37.2868032 35.9724797,36.2060811 C35.9724797,33.1593644 38.4443442,30.6875 41.4910608,30.6875 C41.6558518,30.6875 41.8206427,30.6951647 41.9816013,30.7104941 C42.8400473,30.787141 43.6448404,31.0592378 44.34616,31.4846284 C45.9595785,32.4580448 47.032636,34.2362542 47.0137267,36.259734 L47.0137267,36.259734 Z M15.0095363,23.3600507 C14.2737255,25.0961043 13.9019877,26.943296 13.9019877,28.847973 C13.9019877,29.2810283 13.9211495,29.7140836 13.959473,30.1394742 C13.9862994,30.4537268 14.2468991,30.698997 14.5649839,30.698997 C14.7949248,30.7028294 15.028698,30.7066617 15.1283391,30.7181588 C17.8876296,31.0247466 20.0337445,33.3624789 20.0337445,36.2022487 C20.0337445,37.4784206 19.6006892,38.6549514 18.8725431,39.5900443 C18.3590084,40.2492082 17.6998446,40.7895693 16.944872,41.161307 C16.2627141,41.4947213 15.5039092,41.6940034 14.7029485,41.7169975 C11.6179084,41.8166385 9.03107347,39.3409417 9.00041469,36.2559016 C8.9774206,34.3665541 9.9125135,32.691818 11.349644,31.6839105 C11.537429,31.5536106 11.6332377,31.3275021 11.602579,31.0975612 C11.5029379,30.3617504 11.449285,29.6106102 11.449285,28.8441406 C11.449285,24.9849662 12.7676127,21.436212 14.9827099,18.6194362 C15.1589979,18.3933277 15.1551655,18.0752428 14.9788775,17.8529666 L14.0246229,16.6764358 C13.9518083,16.5844595 14.0016288,16.4464949 14.1204316,16.4273332 L17.7420004,15.852481 L20.3863205,15.4309227 C20.501291,15.411761 20.5970997,15.5267314 20.5549438,15.6378695 L19.9264388,17.2819468 L18.2861938,21.5665118 C18.244038,21.6776499 18.0984088,21.700644 18.0255942,21.6086677 L17.374095,20.8038746 C17.1173277,20.4857897 16.6267872,20.5011191 16.3968463,20.8383657 C15.8449882,21.6316617 15.3851064,22.4709459 15.0095363,23.3600507 Z" id="形状" fill="#2F54EB" fill-rule="nonzero"></path>
                </g>
            </g>
        </g>
    </g>
</svg>
